!!!SOCIAL_FUNCTION:	hand game songs
!!!PDT:	1922
!!!OTL: No_94_Hand_Game_Song_(a).krn
!!!REG: Southwest
!!!LANG: Non-Tone
!!!LING_GROUP: Uto-Aztecan
**kern
*staff1
=1-
=
*clefF4
*k[f#c#]
*M2/4
4d\
4A\
=2
16d\LK
[8.A\J
4A\]
=3||
*M3/4
4F#\
2A\
=4||
*M2/4
8F#\L
8D\J
4A\
=5||
*M3/4
4F#\
[2D\
=6||
*M2/4
2D\]
=7
(4D\
8F#\)
8r
=8
(4D\
8F#\)
8r
=9
8F#\L
8E\J
8F#\L
8D\J
=10
4A\
4F#\
=11
[2D\
=12
2D\]
=13
(4D\
8F#\)
8r
=14
(4D\
8F#\)
8r
=15||
*M3/4
8F#\L
8E\J
8F#\L
8E\J
8F#\L
8D\J
==:|!
*-
